svg/icon/crw.svg

<svg height="32" viewBox="0 0 32 32" width="32" xmlns="http://www.w3.org/2000/svg" xmlns:xlink="http://www.w3.org/1999/xlink"><defs><linearGradient id="a" x1="50%" x2="50%" y1="0%" y2="100%"><stop offset="0" stop-color="#fff" stop-opacity=".5"/><stop offset="1" stop-opacity=".5"/></linearGradient><circle id="b" cx="16" cy="15" r="15"/><filter id="c" height="111.7%" width="111.7%" x="-5.8%" y="-4.2%"><feOffset dy=".5" in="SourceAlpha" result="shadowOffsetOuter1"/><feGaussianBlur in="shadowOffsetOuter1" result="shadowBlurOuter1" stdDeviation=".5"/><feComposite in="shadowBlurOuter1" in2="SourceAlpha" operator="out" result="shadowBlurOuter1"/><feColorMatrix in="shadowBlurOuter1" values="0 0 0 0 0   0 0 0 0 0   0 0 0 0 0  0 0 0 0.199473505 0"/></filter><path id="d" d="m24.8330498 14.3464272c-.2014965.0448504-.3388557.0707869-.4740346.1061804-.8453222.2214431-1.6961861.3961632-2.5758481.3629233-1.1762744-.0442886-2.1860279-.517044-3.0770457-1.2798759-.3602954-.3085223-.6939728-.6500036-1.0385518-.9778144-.166339-.1582406-.2070381-.3382041-.0794903-.5436359.10093-.1625477.2008606-.3255636.3249563-.5267819.164613.1808062.3021539.3309006.4386954.4819314.6335602.7012211 1.3096363 1.3410186 2.2035612 1.6818445.8765733.3341778 1.7701348.2843648 2.6668759.1339895 1.2681196-.212548 2.4387615-.7189178 3.5872369-1.288303.0380645-.0189139.0791269-.0313672.190595-.0747195-.0764924.1425102-.1179181.2274357-.1659757.3082414-1.6760183 2.8178057-3.3524 5.6354242-5.0294176 8.4526681-.2061296.3462566-.2836213.3723803-.6417363.1966303-2.3659939-1.1612423-4.8443642-1.3828728-7.401589-.9430764-.4009035.0690079-.4715817.0349253-.66254-.3746275-.2087642-.4478489-.2065839-.4356765.266088-.5271564 1.326897-.2570239 2.6634237-.3129231 4.0016765-.1629223 1.249042.1399821 2.4947227.3243464 3.6404727.9125519.1637954.0841764.251371.0134832.3328599-.1226599.7271315-1.2140516 1.4544448-2.4280096 2.1851194-3.639814.391183-.6488799.7892702-1.2934528 1.1833603-1.9404601.033613-.0551501.0608668-.1141392.1247316-.2351136zm-17.6542896.1209276c.16861022.2824922.33631198.5656398.50619405.847383 1.12131247 1.8602162 2.24353341 3.7197769 3.36430085 5.5803676.1603432.2662.1597073.2739716-.1169189.4013131-.5977668.2750015-.5234548.3455075-.8881107-.2658254-1.29092201-2.1646186-2.57784679-4.331859-3.86649764-6.4979757-.34784943-.5847411-.69678901-1.1688267-1.04354828-1.7543168-.04951109-.083521-.08966503-.1730346-.13417958-.2597392.01280929-.0174159.02561858-.0349253.03851871-.0523411.14698887.0644198.29534043.1256561.44069407.1937276.88265997.4126427 1.7754947.7967272 2.7213835 1.0314663 1.21406627.3013126 2.41332462.3363315 3.57061212-.2404507.7193188-.3585226 1.3129976-.887739 1.8468088-1.491394.8554062-.9675146 1.5488339-2.05347565 2.1777609-3.18597249.0405174-.07303411.0815798-.14578732.1531664-.27359701.0829425.12359618.1361782.21816599.2034043.30056345.3682898.45140697.2820769.85309456-.0289799 1.32107465-.6940636 1.044575-1.3929421 2.0785695-2.3172095 2.9263269-.8261538.7576821-1.7520565 1.330438-2.8394834 1.59102-.8548611.20487-1.71299261.1639522-2.56939808.0050562-.39209144-.0728468-.78254765-.155057-1.17373063-.2330537-.01489875.0188203-.0297975.037547-.04478709.0563673z"/><filter id="e" height="126.9%" width="115.9%" x="-8%" y="-9.6%"><feOffset dy=".5" in="SourceAlpha" result="shadowOffsetOuter1"/><feGaussianBlur in="shadowOffsetOuter1" result="shadowBlurOuter1" stdDeviation=".5"/><feColorMatrix in="shadowBlurOuter1" values="0 0 0 0 0   0 0 0 0 0   0 0 0 0 0  0 0 0 0.204257246 0"/></filter></defs><g fill="none" fill-rule="evenodd"><use fill="#000" filter="url(#c)" xlink:href="#b"/><use fill="#0f1529" xlink:href="#b"/><use fill="url(#a)" xlink:href="#b"/><circle cx="16" cy="15" r="14.5" stroke="#000" stroke-opacity=".097"/><use fill="#000" filter="url(#e)" xlink:href="#d"/><use fill="#fff" xlink:href="#d"/></g></svg>

<svg xmlns="http://www.w3.org/2000/svg" xmlns:xlink="http://www.w3.org/1999/xlink" width="32" height="32" viewBox="0 0 32 32">
  <defs>
    <linearGradient id="crw-c" x1="50%" x2="50%" y1="0%" y2="100%">
      <stop offset="0%" stop-color="#FFF" stop-opacity=".5"/>
      <stop offset="100%" stop-opacity=".5"/>
    </linearGradient>
    <circle id="crw-b" cx="16" cy="15" r="15"/>
    <filter id="crw-a" width="111.7%" height="111.7%" x="-5.8%" y="-4.2%" filterUnits="objectBoundingBox">
      <feOffset dy=".5" in="SourceAlpha" result="shadowOffsetOuter1"/>
      <feGaussianBlur in="shadowOffsetOuter1" result="shadowBlurOuter1" stdDeviation=".5"/>
      <feComposite in="shadowBlurOuter1" in2="SourceAlpha" operator="out" result="shadowBlurOuter1"/>
      <feColorMatrix in="shadowBlurOuter1" values="0 0 0 0 0   0 0 0 0 0   0 0 0 0 0  0 0 0 0.199473505 0"/>
    </filter>
    <path id="crw-e" d="M24.8330498,14.3464272 C24.6315533,14.3912776 24.4941941,14.4172141 24.3590152,14.4526076 C23.513693,14.6740507 22.6628291,14.8487708 21.7831671,14.8155309 C20.6068927,14.7712423 19.5971392,14.2984869 18.7061214,13.535655 C18.345826,13.2271327 18.0121486,12.8856514 17.6675696,12.5578406 C17.5012306,12.3996 17.4605315,12.2196365 17.5880793,12.0142047 C17.6890093,11.851657 17.7889399,11.6886411 17.9130356,11.4874228 C18.0776486,11.668229 18.2151895,11.8183234 18.351731,11.9693542 C18.9852912,12.6705753 19.6613673,13.3103728 20.5552922,13.6511987 C21.4318655,13.9853765 22.325427,13.9355635 23.2221681,13.7851882 C24.4902877,13.5726402 25.6609296,13.0662704 26.809405,12.4968852 C26.8474695,12.4779713 26.8885319,12.465518 27,12.4221657 C26.9235076,12.5646759 26.8820819,12.6496014 26.8340243,12.7304071 C25.158006,15.5482128 23.4816243,18.3658313 21.8046067,21.1830752 C21.5984771,21.5293318 21.5209854,21.5554555 21.1628704,21.3797055 C18.7968765,20.2184632 16.3185062,19.9968327 13.7612814,20.4366291 C13.3603779,20.505637 13.2896997,20.4715544 13.0987414,20.0620016 C12.8899772,19.6141527 12.8921575,19.6263251 13.3648294,19.5348452 C14.6917264,19.2778213 16.0282531,19.2219221 17.3665059,19.3719229 C18.6155479,19.511905 19.8612286,19.6962693 21.0069786,20.2844748 C21.170774,20.3686512 21.2583496,20.297958 21.3398385,20.1618149 C22.06697,18.9477633 22.7942833,17.7338053 23.5249579,16.5220009 C23.9161409,15.873121 24.3142281,15.2285481 24.7083182,14.5815408 C24.7419312,14.5263907 24.769185,14.4674016 24.8330498,14.3464272 Z M7.1787602,14.4673548 C7.34737042,14.749847 7.51507218,15.0329946 7.68495425,15.3147378 C8.80626672,17.174954 9.92848766,19.0345147 11.0492551,20.8951054 C11.2095983,21.1613054 11.2089624,21.169077 10.9323362,21.2964185 C10.3345694,21.57142 10.4088814,21.641926 10.0442255,21.0305931 C8.75330349,18.8659745 7.46637871,16.6987341 6.17772786,14.5326174 C5.82987843,13.9478763 5.48093885,13.3637907 5.13417958,12.7783006 C5.08466849,12.6947796 5.04451455,12.605266 5,12.5185614 C5.01280929,12.5011455 5.02561858,12.4836361 5.03851871,12.4662203 C5.18550758,12.5306401 5.33385914,12.5918764 5.47921278,12.6599479 C6.36187275,13.0725906 7.25470748,13.4566751 8.20059628,13.6914142 C9.41466255,13.9927268 10.6139209,14.0277457 11.7712084,13.4509635 C12.4905272,13.0924409 13.084206,12.5632245 13.6180172,11.9595695 C14.4734234,10.9920549 15.1668511,9.90609385 15.7957781,8.77359701 C15.8362955,8.7005629 15.8773579,8.62780969 15.9489445,8.5 C16.031887,8.62359618 16.0851227,8.71816599 16.1523488,8.80056345 C16.5206386,9.25197042 16.4344257,9.65365801 16.1233689,10.1216381 C15.4293053,11.1662131 14.7304268,12.2002076 13.8061594,13.047965 C12.9800056,13.8056471 12.0541029,14.378403 10.966676,14.638985 C10.1118149,14.843855 9.25368339,14.8029372 8.39727792,14.6440412 C8.00518648,14.5711944 7.61473027,14.4889842 7.22354729,14.4109875 C7.20864854,14.4298078 7.19374979,14.4485345 7.1787602,14.4673548 Z"/>
    <filter id="crw-d" width="115.9%" height="126.9%" x="-8%" y="-9.6%" filterUnits="objectBoundingBox">
      <feOffset dy=".5" in="SourceAlpha" result="shadowOffsetOuter1"/>
      <feGaussianBlur in="shadowOffsetOuter1" result="shadowBlurOuter1" stdDeviation=".5"/>
      <feColorMatrix in="shadowBlurOuter1" values="0 0 0 0 0   0 0 0 0 0   0 0 0 0 0  0 0 0 0.204257246 0"/>
    </filter>
  </defs>
  <g fill="none" fill-rule="evenodd">
    <use fill="#000" filter="url(#crw-a)" xlink:href="#crw-b"/>
    <use fill="#0F1529" xlink:href="#crw-b"/>
    <use fill="url(#crw-c)" style="mix-blend-mode:soft-light" xlink:href="#crw-b"/>
    <circle cx="16" cy="15" r="14.5" stroke="#000" stroke-opacity=".097"/>
    <g>
      <use fill="#000" filter="url(#crw-d)" xlink:href="#crw-e"/>
      <use fill="#FFF" xlink:href="#crw-e"/>
    </g>
  </g>
</svg>
